X:1
T:6 Lieder, Op.19
T:Beduinen-Romanze
T:4. Beduinen-Romanze
T:Johanna Kinkel
T:Gottfried Kinkel
T:6 Lieder, Op.19 (für Alt oder Bariton) 
T:Creative Commons copyright waiver (CC0 1.0 Universal)
T:Creative Commons copyright waiver (CC0 1.0 Universal)
C:Johanna Kinkel
Z:Gottfried Kinkel
Z:Creative Commons copyright waiver (CC0 1.0 Universal)
%%score ( 1 2 ) { ( 3 5 ) | 4 }
L:1/8
Q:1/4=144
M:6/8
K:C
V:1 treble nm="Singstimme\nVoice"
V:2 treble 
V:3 treble nm="Pianoforte"
V:5 treble 
V:4 bass 
V:1
"^Molto allegro" z z | z6 |!f! A3 E3 | (A2 B) c2 d | e3 B2 z |!sfz! B2 z"^(*)" z2 z | B2 z z2 B | %7
w: ||1. Vor- wärts|mit des Vo- gels|Flu- ge,|fort!|fort mein|
w: ||2. Mond- licht|zit- * tert! *|||* ein|
w: ||3. Jus- suf|senkt die Lan- zen-|spit- ze||spornt das|
w: ||4. Rück- wärts|wen- det sich die|Stu- te||braust da-|
 e2 d B2 c | A2 z z!ff! c d | _e2 e e2 e | _e6 | z6 | c3 A3 | E2 E (E^F) ^G | A3 z!mf! A c | %15
w: Ross in Stur- mes-|flucht! Denn ge-|mor- det liegt der|Feind||drun- ten|in der Fel- * sen-|schlucht. Ha- la-|
w: Schat- ten sich em-|por. Und die|Stu- te beisst den|Zaum||schau- dert|schnaubt und spitzt * das|Ohr. Ha- la-|
w: Tier mit al- ler|Macht. Doch der|Schat- ten un- be-|wegt||steht im|Weg ihm da * und|lacht. Ha- la-|
w: hin in Stur- mes-|flucht, und der|Mör- der liegt zer-|schellt||bei dem|Feind in tie- * fer|Schlucht. Ha- la-|
 e3 dc B | c2 B A2 c | B2 A ^GA B | A2 z z!f! A c | (e6 | (e6) | !wedge!f2) z !>!e2 ^G | %22
w: la lei- * la|ha- la- la, o|lei- la ha- * la-|la ha- la-|la||* lei- la-|
w: la lei- * la|ha- la- la, o|lei- la ha- * la-|la ha- la-|la||* lei- la-|
w: la lei- * la|ha- la- la, o|lei- la ha- * la-|la ha- la-|la||* lei- la-|
w: la lei- * la|ha- la- la, o|lei- la ha- * la-|la ha- la-|la||* lei- la-|
 A2!p! c B2 c | A2 z z3 | z2 c B2 c | A2 z z3 | A2!<(! c (e3!<)! |!>(! !fermata!e6)!>)! | %28
w: la, ha- la- la-|la|ha- la- la-|la|lei- la- la||
w: la, ha- la- la-|la|ha- la- la-|la|lei- la- la||
w: la, ha- la- la-|la|ha- la- la-|la|lei- la- la||
w: la, ha- la- la-|la|ha- la- la-|la|lei- la- la||
 c2 B !fermata!A :| %29
w: ha- la- la!|
w: ha- la- la!|
w: ha- la- la!|
w: ha- la- la!|
V:2
 x2 | x6 | x6 | x3 c z x | z6 | z2 z B2 B | B2 B B2 x | x6 | x6 | x6 | x6 | x6 | x6 | x6 | x6 | %15
w: |||||||||||||||
w: |||||In der|Wüs- te bäumt|||||||||
 x6 | x6 | x6 | x6 | x6 | x6 | x6 | x6 | x6 | x6 | x6 | x6 | x6 | x4 :| %29
w: ||||||||||||||
w: ||||||||||||||
V:3
!f! !wedge!E!wedge!^G | A2 z z !wedge!E!wedge!^G | A2 z z !wedge!E!wedge!^G | %3
 (AE)!wedge!B (cA)!wedge!d | g2 z z [Bf]/A/[Bf]/A/ | [^Ge]2 z z [Bf]/A/[Bf]/A/ | %6
 [^Ge]2 z z [Bf]/A/[Bf]/A/ | ([^Ge]E)!wedge!d ([GB]E)!wedge!c | (AC)!wedge!E A,2 z | %9
!ped! [_EGc_e]2 [DFce] [EGce]2 [EGce] | [_EGc_e]2 [EGce] [EGce]!ped-up! AB | %11
!>(! [_EAc]2 [EAc] [EAc]2 [EAc]!>)! |!p! [^DAc]3 [CDA]3 | [A,CE]2 z [B,DE]2 z | [CE]2 z z2 z | %15
 z2 [B,D^G] [B,DG]2 [B,DG] | [CEA]2 z!>(! [Ee]3!>)! | !>![Ff]3 [Ee]2 [Dd] | [Cc]2 z z Ac | %19
!ped! e3 dcB!ped-up! | c2 B A2 c | !wedge![DFB]2 z !wedge![B,D^G]2 z | %22
"^rallen     -        -" !arpeggio![CEA]2 z !arpeggio![B,D^G]2 z | %23
"^-          -       tan       -            -              -            do." [CA]2 [Ec] [DB]2 [Ec] | %24
 !arpeggio![CEA]2 z !arpeggio![B,D^G]2 z | [CA]2 [Ec] [DB]2 [Ec] |"^ad lib." !arpeggio![CEA]6 | %27
 z6 | z3"^(Gottfried Kinkel.)" !arpeggio!!fermata![A,CEA] :| %29
V:4
 z2 | (A,C,)!wedge!E, A,,2 z | (A,C,)!wedge!E, A,,2 z | (A,E,)!wedge!B, (CA,)!wedge!D | %4
 (E^G,)!wedge!B, E,!sfz! [D,D][D,D] | ([F,E]^G,)!wedge!B, E,!sfz! [D,D][D,D] | %6
 ([E,E]^G,)!wedge!B, E,!sfz! [D,D][D,D] | [E,B,]2 z [E,D]2 z | (A,C,)!wedge!E, A,,2 z | %9
"_(*) The small notes refer only to Verse 2" [C,G,C]2 [C,G,C] [C,G,C]2 [C,G,C] | %10
 [C,G,C]2 [C,G,C] [C,G,C] z z | [^F,,^F,]2 [F,,F,] [F,,F,]2 [F,,F,] | [=F,,=F,]3 [F,,F,]3 | %13
 [E,,E,]2 z [E,,E,]2 z | A,,2 [E,A,C] [E,A,C]2 z | [A,,,A,,]6 | A,,2 [E,A,] C,2 [E,A,] | %17
 D,2 [A,B,] E,2 [^G,B,] | [A,,A,]2 [E,A,C] [E,A,C]2 z | [A,,,A,,]2 [E,^G,D] [E,G,D]2 [E,G,D] | %20
 A,,2 [E,A,] C,2 [E,A,] | D,2 z E,2 z | !arpeggio![A,,E,A,]2 z [E,,E,]2 z | %23
!pp! [A,,A,]2 z [E,^G,]2 z | !arpeggio![A,,E,A,]2 z [E,,E,]2 z | [A,,A,]2 z [E,^G,]2 z | %26
 !arpeggio![A,,E,A,]6 | z6 | z3 !arpeggio!!fermata![A,,,E,,A,,] :| %29
V:5
 x2 | x6 | x6 | x6 | x6 | x6 | x6 | x6 | x6 | x6 | x6 | x6 | x6 | x6 | x6 | x6 | x6 | x6 | x6 | %19
 (E6 | E6) | x6 | x6 | x6 | x6 | x6 | x6 | x6 | x4 :| %29

